!!!SOCIAL_FUNCTION:	dream songs
!!!PDT:	1932
!!!OTL: No_55_Dream_of_the_Common_Bear.krn
!!!REG: Wisconsin
!!!LANG: Non-Tone
!!!LING_GROUP: Algonquin
**kern
*staff1
=1-
*clefF4
*k[]
*M3/8
8r
4c\
=2
4e\
8d\
=3||
*M2/4
8c\L
8c\J
8.c\L
16c\Jk
=4
2c\
=5||
*M3/8
8G\
8r
8d\
=6
4e\
8d\
=7||
*M2/4
8c\L
8c\J
8.c\L
16c\Jk
=8
2c\
=9
8c\L
8B\J
8c\L
8G\J
=10
8F\L
8F\J
16F\
16r
16G\LL
16G\JJ
=11||
*M3/8
4A\
8G\
=12||
*M2/4
8F\L
8F\J
8.F\L
16E\Jk
=13
4F\
4r
=14||
*M3/4
8F\L
8D\J
8C/L
8C/J
16C/
16r
16D\LL
16D\JJ
=15||
*M2/4
4F\
4F\
=16||
*M3/8
8D\L
8F\
8D\J
=17||
*M2/4
8C/L
8C/J
8.C/L
16C/Jk
=18||
*M3/4
2C/
8C/
16r
16G\
=19||
*M2/4
8.c\L
16B\Jk
8.c\L
16B\Jk
=20
2c\
=21
16c\LK
8.B\J
16c\LK
8.G\J
=22
8F\L
8F\J
16F\
16r
16G\LL
16G\JJ
=23||
*M3/8
4A\
8G\
=24||
*M2/4
8F\L
8F\J
8.F\L
16E\Jk
=25
4F\
4r
=26||
*M3/4
8F\L
8D\J
8C/L
8C/J
16C/
16r
16D\LL
16D\JJ
=27||
*M2/4
4F\
4F\
=28||
*M3/8
8D\L
8F\
8D\J
=29||
*M2/4
8C/L
8C/J
8.C/L
16C/Jk
=30||
*M3/4
2C/
8C/
8r
==
*-
